X:121
T:Stool of Repentence
M:6/8
L:1/8
K:A
P:A
"A"a2e c2e|agf edc|"D"aff f2e|"E7"fag f2e|\
"A"a2e c2e|agf edc|"D"def efg|"E7"aec B2A:|
P:B
|:"A"cAA eAA|cAc edc|"D"dBB fBB|"E7"dBd fed|\
"A"cAA eAA|agf edc|"D"def efg|"E7"aec B2A:|
T:Harmony 1
P:A
"A"a3 e3|c2d e3|"D"f3 d3|"E7"B2c d3|"A"a3 e3|c2d e3|"D"f2e d2c|B2A e3:|
P:B
|:"A"c3 e3|c2d e3|"D"d3 f3|"E7"B2c d3|"A"c3 e3|c2d e3|"D"d3 B3|"E7"B2A e3:|
T:Harmony 2
P:A
"A"[c2a2][ca] z3|z6|"D"[d2a2][da] z3|"E7"[e2g2][eg] z3|\
"A"[c2a2][ca] z3|z6|"D"[d2a2][da] z3|"E7"[e2g2][eg] z3:|
P:B
|:"A"[A2c2][Ac]- [A2c2][Ac]|[A2c2][Ac]- [A2c2][Ac]|\
"D"[A2d2][Ad]- [A2d2][Ad]|"E7"[G2B2][GB]- [G2B2][GB]|\
"A"[A2c2][Ac]- [A2c2][Ac]|[A2c2][Ac]- [A2c2][Ac]|\
"D"[A2d2][Ad]- [A2d2][Ad]|"E7"[G2B2][GB]- [G2B2][GB]:|



%%newpage
%%textfont * 20
%%text J4 (1.0)
%%textfont * 12



